ui/StatusQ/src/assets/img/icons/emojiCategories/objects.svg

<svg fill="none" height="20" viewBox="0 0 20 20" width="20" xmlns="http://www.w3.org/2000/svg"><g clip-rule="evenodd" fill="#939ba1" fill-rule="evenodd"><path d="m7.35614 14.8391c0 1.1926-.97154 2.1594-2.17 2.1594s-2.17-.9668-2.17-2.1594.97154-2.1594 2.17-2.1594 2.17.9668 2.17 2.1594zm-1.50807 0c0 .3638-.29635.6587-.66193.6587-.36557 0-.66193-.2949-.66193-.6587s.29636-.6587.66193-.6587c.36558 0 .66193.2949.66193.6587z"/><path d="m15.1478 9.0812c-.0473.19183-.2036.33799-.3989.37306l-.9687.17391c-.2191.03934-.3861.21739-.4104.43763l-.1561 1.4119c-.013.1178-.0676.2272-.1541.3086l-.9076.8549c-.1253.118-.1795.2914-.154.4611.0439.2919.0666.5907.0666.8948 0 3.3153-2.70078 6.0029-6.03231 6.0029-3.33154 0-6.03229-2.6876-6.03229-6.0029 0-3.3154 2.70075-6.00296 6.03229-6.00296.69597 0 1.36442.11729 1.98647.33309.19021.06599.40366.02621.5473-.11432l8.24814-8.069392c.0941-.0919768.2206-.143518.3525-.143518h2.3304c.3193 0 .5576.292289.492.603182l-.8236 3.897438c-.036.17051-.1586.31008-.3236.36842l-.8895.31457c-.1486.05257-.2638.1715-.3111.32124l-.4005 1.26681c-.0506.15996-.1784.28407-.3403.33053l-1.0814.31029c-.1729.04963-.306.18748-.3489.36143zm-4.5913 4.9159c0-.3473-.0395-.6854-.1143-1.01l-.0093-.0276c-.057-.1681-.1213-.3331-.1925-.4946-.0125-.0283-.0061-.0614.0163-.0829l1.4528-1.3904c.0294-.0277.0479-.0648.0523-.1048l.2321-2.09896c.0243-.22022.1913-.39827.4104-.4376l1.1133-.19988c.1953-.03507.3517-.18124.399-.37307l.2971-1.20469c.0429-.17396.1759-.31181.3489-.36144l1.1423-.32777c.1619-.04646.2897-.17057.3402-.33054l.3831-1.21168c.0473-.14974.1626-.26868.3112-.32124l.8007-.28318c.165-.05835.2876-.19792.3236-.36843l.2896-1.3703c.0541-.25631-.1424-.49729-.4056-.49729-.1087 0-.213.0425-.2905.11832l-7.76987 7.6021-1.0886 1.06225c-.00192.0018-.00491.0021-.00712.0006-.72786-.4978-1.60941-.78913-2.55932-.78913-2.49866 0-4.52422 2.01573-4.52422 4.50223s2.02556 4.5022 4.52422 4.5022c2.49865 0 4.52421-2.0157 4.52421-4.5022z"/></g></svg>

<svg width="20" height="20" viewBox="0 0 20 20" fill="none" xmlns="http://www.w3.org/2000/svg">
<path fill-rule="evenodd" clip-rule="evenodd" d="M7.35614 14.8391C7.35614 16.0317 6.3846 16.9985 5.18614 16.9985C3.98768 16.9985 3.01614 16.0317 3.01614 14.8391C3.01614 13.6465 3.98768 12.6797 5.18614 12.6797C6.3846 12.6797 7.35614 13.6465 7.35614 14.8391ZM5.84807 14.8391C5.84807 15.2029 5.55172 15.4978 5.18614 15.4978C4.82057 15.4978 4.52421 15.2029 4.52421 14.8391C4.52421 14.4753 4.82057 14.1804 5.18614 14.1804C5.55172 14.1804 5.84807 14.4753 5.84807 14.8391Z" fill="#939BA1"/>
<path fill-rule="evenodd" clip-rule="evenodd" d="M15.1478 9.0812C15.1005 9.27303 14.9442 9.41919 14.7489 9.45426L13.7802 9.62817C13.5611 9.66751 13.3941 9.84556 13.3698 10.0658L13.2137 11.4777C13.2007 11.5955 13.1461 11.7049 13.0596 11.7863L12.152 12.6412C12.0267 12.7592 11.9725 12.9326 11.998 13.1023C12.0419 13.3942 12.0646 13.693 12.0646 13.9971C12.0646 17.3124 9.36382 20 6.03229 20C2.70075 20 0 17.3124 0 13.9971C0 10.6817 2.70075 7.99414 6.03229 7.99414C6.72826 7.99414 7.39671 8.11143 8.01876 8.32723C8.20897 8.39322 8.42242 8.35344 8.56606 8.21291L16.8142 0.143518C16.9083 0.0515412 17.0348 0 17.1667 0H19.4971C19.8164 0 20.0547 0.292289 19.9891 0.603182L19.1655 4.50062C19.1295 4.67113 19.0069 4.8107 18.8419 4.86904L17.9524 5.18361C17.8038 5.23618 17.6886 5.35511 17.6413 5.50485L17.2408 6.77166C17.1902 6.93162 17.0624 7.05573 16.9005 7.10219L15.8191 7.41248C15.6462 7.46211 15.5131 7.59996 15.4702 7.77391L15.1478 9.0812ZM10.5565 13.9971C10.5565 13.6498 10.517 13.3117 10.4422 12.9871L10.4329 12.9595C10.3759 12.7914 10.3116 12.6264 10.2404 12.4649C10.2279 12.4366 10.2343 12.4035 10.2567 12.382L11.7095 10.9916C11.7389 10.9639 11.7574 10.9268 11.7618 10.8868L11.9939 8.78784C12.0182 8.56762 12.1852 8.38957 12.4043 8.35024L13.5176 8.15036C13.7129 8.11529 13.8693 7.96912 13.9166 7.77729L14.2137 6.5726C14.2566 6.39864 14.3896 6.26079 14.5626 6.21116L15.7049 5.88339C15.8668 5.83693 15.9946 5.71282 16.0451 5.55285L16.4282 4.34117C16.4755 4.19143 16.5908 4.07249 16.7394 4.01993L17.5401 3.73675C17.7051 3.6784 17.8277 3.53883 17.8637 3.36832L18.1533 1.99802C18.2074 1.74171 18.0109 1.50073 17.7477 1.50073C17.639 1.50073 17.5347 1.54323 17.4572 1.61905L9.68733 9.22115L8.59873 10.2834C8.59681 10.2852 8.59382 10.2855 8.59161 10.284C7.86375 9.7862 6.9822 9.49487 6.03229 9.49487C3.53363 9.49487 1.50807 11.5106 1.50807 13.9971C1.50807 16.4836 3.53363 18.4993 6.03229 18.4993C8.53094 18.4993 10.5565 16.4836 10.5565 13.9971Z" fill="#939BA1"/>
</svg>
